X: 113
T: Feng caiyun
L: 1/8
M: 2/4
K: G
d d B d [I:setbarnb 1]| 
e B A3/ B/ | 
d e/ g/ d/ e/ d/ B/ | 
A G E D | 
G G/ A/ B d/ e/ | 
B A/ B< D E/ | 
G F/ E/ A E | 
D4 |]

@@@ Tune index: 8987
